X: 95
T: Pollonesse #95
M: 3/4
L: 1/16
R: Pollonesse
K: G
Q: 110
g2bg d2gd B2dB|G2BG D2GD B,2DB,|G,2d2 d4 c4|
A,2c2 c4 B4|G,2d2 d2c2 c2B2|A,2c2 c2B2 B2A2|B2dB c2ec cBAG|FGAF [GG,]8:|
B2G2 c2A2 d2B2|e2c2 f2d2 g4|G2b2 F2a2 E2g2|g4 f2ed c2Bc|
A2a2 a4 g4| A2g2 g4 f4|D2a2 a2g2 g2f2|E2g2 g2f2 f2e2|
f2af g2bg gfed|^cdec d4 D4|d2ef g4=f4|f2ed BcdB c4|
A2a2 a4 g4|=f2ed ^cdec d4|D2d2 d4 c4| D2c2 c4 B4|
D2d2 d2c2 c2B2|d2c2 c2B2 B2A2|B2dB c2ec cBAG|FGAF G4 G,4:|

